icon-svg/pendant-round.svg

<svg xmlns="http://www.w3.org/2000/svg" fill="#44739e" viewBox="0 0 24 24"><path d="M23.163 22.244c-3.93 1.008-10.385 1.008-14.318 0-3.879-.994-3.76-2.576.169-3.535 3.875-.945 10.086-.945 13.964 0 3.934.959 4.06 2.541.185 3.535m4.762-8.242c-.292-.75-1.485-1.47-3.547-2.04-2.07-.571-4.694-.886-7.378-.948V6.469C17 6.21 16.553 6 16 6s-1 .21-1 .469v4.545c-2.688.062-5.315.376-7.385.948-2.062.57-3.248 1.29-3.54 2.04a.94.94 0 0 0-.075.375v7.25c0 .127.022.255.075.375.285.72 1.388 1.417 3.337 1.979 4.718 1.359 12.466 1.359 17.183 0 1.942-.562 3.045-1.259 3.33-1.979.052-.12.075-.248.075-.375v-7.25c0-.128-.023-.248-.075-.375"/></svg>

<?xml version="1.0" encoding="UTF-8"?>
<svg width="32px" height="32px" viewBox="0 0 32 32" fill="#44739e" version="1.1" xmlns="http://www.w3.org/2000/svg" xmlns:xlink="http://www.w3.org/1999/xlink">
            <path d="M23.163,22.244 C19.233,23.252 12.778,23.252 8.845,22.244 C4.966,21.25 5.085,19.668 9.014,18.709 C12.889,17.764 19.1,17.764 22.978,18.709 C26.912,19.668 27.038,21.25 23.163,22.244 M27.925,14.002 C27.633,13.252 26.44,12.532 24.378,11.962 C22.308,11.391 19.684,11.076 17,11.014 L17,6.749 L17,6.469 C17,6.21 16.553,6 16,6 C15.447,6 15,6.21 15,6.469 L15,6.749 L15,11.014 C12.312,11.076 9.685,11.39 7.615,11.962 C5.553,12.532 4.367,13.252 4.075,14.002 C4.022,14.129 4,14.249 4,14.377 L4,21.627 C4,21.754 4.022,21.882 4.075,22.002 C4.36,22.722 5.463,23.419 7.412,23.981 C12.13,25.34 19.878,25.34 24.595,23.981 C26.537,23.419 27.64,22.722 27.925,22.002 C27.977,21.882 28,21.754 28,21.627 L28,14.377 C28,14.249 27.977,14.129 27.925,14.002"></path>
</svg>
